!!!OTL: Preab san &oacute;l!, S. 117
!!!id: I0549
**kern
*clefG2
*k[f#c#g#d#]
*E:
{8B
=1
8e
8f#
8g#
8a
4b
4ee
=2
4dd#
4cc#
8b
8a
8.g#
16a}
=3
{4b
4ee
8cc#
8a
8g#
8f#
=4
4e
4d#
4c#}
=5
{8B
8c#
=6
8e
8f#
8g#
8a
4b
8.ee
16ee
=7
4dd#
4cc#
8b
8a
8.g#}
=8
{16a
=9
4b
4ee
8cc#
8a
8g#
8f#
=10
4e
4e
4.e}
=11
{8e
=12
8g#
8b
8cc#
8dd#
4ee
8dd#
8cc#
=13
8ff#
8ee
16dd#
8dd#
16cc#
4b
8.g#}
=14
{16g#
=15
8g#
8b
8cc#
8dd#
4ee
8dd#
8ee
=16
8ff#
8ee
8dd#
8ee
4.cc#}
=17
{8cc#
=18
8b
8ee
8dd#
8cc#
8b
8a
8g#
8f#
=19
4g#
4e
4c#
8e}
=20
{8f#
=21
4g#
4ee
8cc#
8a
8g#
8f#
=22
4e
4e
4.e}
==
*-
!!!minrhy: 16
!!!meters: 4/4 ]  ZZ[8
!!!cut: Preab san &oacute;l!, S. 117
!!!reg: Irland
!!!trd: O'SULLIVAN, Donal: Song of the Irish
!!!rhy1: X_  X_X_X_X_X__X__  X__X__X_X_X_.X
!!!rhy2: X__X__X_X_X_X_  X__X__X__
!!!key: I0549  16  E 4/4 ]  ZZ[8
!!!mod: HEPTATONIK IONISCH]  AMBITUS[12
!!!kad: 4-6313611
!!!akz: 1575_561-6_1575_5611_3+1+25_3+1+26_553-6_3611_
!!!fot: 'a__b__av_bw_c__cw_d__e__
!!!for: 'a__b__c__bv_d__e__f__bv_
!!!fok: '^a_^d_^a_^d_^a_^a_~d_^d_
!! PHRAS[VORWIEGEND AUFTAKTIG]
!!!fkt: Trinklied
!! IRISCHE V
!! PR[16] 2K[5] 2G[20] 3K[4] 3G[0] 4A[2] 4Ü[0] 5A[1] 6K[0] 6G[0]
!! 7K[0] 7G[0] 8A[1] MEHR[0] SI[33] ABS[82] SR[24] SP[9]
!! ST[16] 2k[10] 2g[32] 3k[7] 3g[2] 4d[0] 4ü[0] 5d[0] 6k[0] 6g[0]
!! 7k[0] 7g[0] 8d[0] mehr[0] si[51] dm[-18] sr[41] sp[10]
!! 1F[52] 2F[42] 3F[0] 4F[0] LF[0] 2P[6] 3P[0] 4P[0] TRI[0] DF[3] AB[83]
!! TF[0] U3K[0] U3[0] U4[0] U4Ü[0] U5[0] U6K[0] U6[0] U7K[0] U7[0]
!! N1[14] N2K[0] N2[7] N3K[0] N3[11] N4[7] N4Ü[0] N5[19] N6K[0] N6[11]
!!!n7k: 0] N7[8] O1[12] O2K[0] O2[5] O3K[0] O3[4] HÖ[1
!!!RNB: symbol: &oacute;= o acute  (UTF-8: Ã³)
